X:1
T:The Loyal Volunteers
L:1/8
M:2/2
I:linebreak $
K:G
V:1 treble 
V:1
|: GBdg g2 g2 | dfac' c'2 c'2 | bgc'a d'bag | ac'ea gfed | GBdg g2 g2 |$ dfac' c'2 c'2 | %6
 bgc'a d'be'c' | bag^f g4 :: bgbd' c'bag | agea gfed |$ edef gded | cdAd cBAG | GBdg g2 g2 | %13
 dfac' c'2 c'2 | bd'gb egce | BAGF G4 :| %16
